X:29
T:Ragtime Annie
C:from the playing of Michi Mathias
Q:1/4=140
I:abc2nwc
M:4/4
L:1/8
K:D
FE|[FA]F[FB]F [FA]F[FB]F|[FA]F[FB]F A2FE|DFBF AFBF|A [c2e2]B [c2e2]cB|
[Ae][Be][ce][Ae] BcAB|cABc ABcB|ABcd egfe|d3c d2:|
fg|a2ab af d2|A3B A2fg|a2ab ag f2|[B6g6]ef|
g2ef gfef|gfed c2ef|gfed cdcB|[F6A6]fg|
a2ab afdB|dBAF D3A|[F3d3][Fd] [=F2^c2][E2=c2]|[D6B6]A2|
g b2g b2ag|fgab a2fd|ABcd egfe|d6z2|]


